icons/file-music-line.svg

<svg viewBox="0 0 24 24" fill="currentColor" xmlns="http://www.w3.org/2000/svg"><path d="M16 8V10H13V14.5C13 15.8807 11.8807 17 10.5 17C9.11929 17 8 15.8807 8 14.5C8 13.1193 9.11929 12 10.5 12C10.6712 12 10.8384 12.0172 11 12.05V8H15V4H5V20H19V8H16ZM3 2.9918C3 2.44405 3.44749 2 3.9985 2H16L20.9997 7L21 20.9925C21 21.5489 20.5551 22 20.0066 22H3.9934C3.44476 22 3 21.5447 3 21.0082V2.9918Z"/></svg>

<svg xmlns="http://www.w3.org/2000/svg" viewBox="0 0 24 24">
    <g>
        <path fill="none" d="M0 0h24v24H0z"/>
        <path d="M16 8v2h-3v4.5a2.5 2.5 0 1 1-2-2.45V8h4V4H5v16h14V8h-3zM3 2.992C3 2.444 3.447 2 3.999 2H16l5 5v13.993A1 1 0 0 1 20.007 22H3.993A1 1 0 0 1 3 21.008V2.992z"/>
    </g>
</svg>
